newicons/emoji_control_knobs.svg

<?xml version="1.0" encoding="UTF-8" standalone="no"?>
<svg
   version="1.2"
   viewBox="0 0 48 48"
   id="svg9"
   xmlns="http://www.w3.org/2000/svg"
   xmlns:svg="http://www.w3.org/2000/svg">
  <defs
     id="defs1" />
  <path
     d="M 40.172371,42.5 H 7.82763 C 6.5420798,42.5 5.5,41.45792 5.5,40.172371 V 7.8276301 C 5.5,6.5420796 6.5420798,5.4999999 7.82763,5.4999999 H 40.172371 C 41.45792,5.4999999 42.5,6.5420796 42.5,7.8276301 V 40.172371 C 42.5,41.45792 41.45792,42.5 40.172371,42.5"
     fill="none"
     stroke="#ffffff"
     stroke-linecap="round"
     stroke-linejoin="round"
     stroke-width="1.16381"
     id="path1"
     style="stroke-width:1;stroke-dasharray:none" />
  <path
     d="m 36.439551,16.058981 c -0.08449,2.140876 -1.888484,3.807924 -4.029282,3.723431 -2.140953,-0.08449 -3.807925,-1.888483 -3.723432,-4.029281 0.08449,-2.140876 1.888406,-3.807925 4.029283,-3.723432"
     fill="none"
     stroke="#ffffff"
     stroke-linecap="round"
     stroke-linejoin="round"
     stroke-width="1.16381"
     id="path2"
     style="stroke-width:1;stroke-dasharray:none" />
  <path
     d="m 17.876161,18.793402 c -1.594581,1.430872 -4.047359,1.298197 -5.478309,-0.296384 -1.43087,-1.594582 -1.298195,-4.04736 0.296386,-5.478309 1.594581,-1.430872 4.04736,-1.298197 5.478309,0.296384"
     fill="none"
     stroke="#ffffff"
     stroke-linecap="round"
     stroke-linejoin="round"
     stroke-width="1.16381"
     id="path3"
     style="stroke-width:1;stroke-dasharray:none" />
  <path
     d="m 35.306306,35.946016 c -1.514977,1.515054 -3.971247,1.514976 -5.486223,0 -1.515054,-1.514977 -1.515054,-3.971247 0,-5.486223 1.514976,-1.514976 3.971246,-1.515054 5.486223,0"
     fill="none"
     stroke="#ffffff"
     stroke-linecap="round"
     stroke-linejoin="round"
     stroke-width="1.16381"
     id="path4"
     style="stroke-width:1;stroke-dasharray:none" />
  <path
     d="m 15.2852,29.323522 c 2.142505,0 3.879382,1.736877 3.879382,3.879382 0,2.142583 -1.736877,3.879382 -3.879382,3.879382 -2.142506,0 -3.879383,-1.736799 -3.879383,-3.879382"
     fill="none"
     stroke="#ffffff"
     stroke-linecap="round"
     stroke-linejoin="round"
     stroke-width="1.16381"
     id="path5"
     style="stroke-width:1;stroke-dasharray:none" />
  <path
     d="M 15.2852,33.202904 10.936334,29.871988"
     fill="none"
     stroke="#ffffff"
     stroke-linecap="round"
     stroke-linejoin="round"
     stroke-width="1.16381"
     id="path6"
     style="stroke-width:1;stroke-dasharray:none" />
  <path
     d="m 37.866775,33.373132 -5.30358,-0.170228"
     fill="none"
     stroke="#ffffff"
     stroke-linecap="round"
     stroke-linejoin="round"
     stroke-width="1.16381"
     id="path7"
     style="stroke-width:1;stroke-dasharray:none" />
  <path
     d="M 20.684446,16.085516 15.113809,15.86571"
     fill="none"
     stroke="#ffffff"
     stroke-linecap="round"
     stroke-linejoin="round"
     stroke-width="1.16381"
     id="path8"
     style="stroke-width:1;stroke-dasharray:none" />
  <path
     d="m 36.442577,12.424853 -3.879382,3.481203"
     fill="none"
     stroke="#ffffff"
     stroke-linecap="round"
     stroke-linejoin="round"
     stroke-width="1.16381"
     id="path9"
     style="stroke-width:1;stroke-dasharray:none" />
</svg>

<?xml version="1.0" encoding="UTF-8"?><svg id="b" xmlns="http://www.w3.org/2000/svg" viewBox="0 0 48 48"><defs><style>.l{fill:none;stroke:#fff;stroke-linecap:round;stroke-linejoin:round;}</style></defs><path id="c" class="l" d="m40.1724,42.5H7.8276c-1.2856,0-2.3276-1.0421-2.3276-2.3276V7.8276c0-1.2856,1.0421-2.3276,2.3276-2.3276h32.3447c1.2855,0,2.3276,1.0421,2.3276,2.3276v32.3447c0,1.2855-1.0421,2.3276-2.3276,2.3276"/><path id="d" class="l" d="m36.4396,16.059c-.0845,2.1409-1.8885,3.8079-4.0293,3.7234-2.141-.0845-3.8079-1.8885-3.7234-4.0293.0845-2.1409,1.8884-3.8079,4.0293-3.7234"/><path id="e" class="l" d="m17.8762,18.7934c-1.5946,1.4309-4.0474,1.2982-5.4783-.2964-1.4309-1.5946-1.2982-4.0474.2964-5.4783,1.5946-1.4309,4.0474-1.2982,5.4783.2964"/><path id="f" class="l" d="m35.3063,35.946c-1.515,1.5151-3.9712,1.515-5.4862,0-1.5151-1.515-1.5151-3.9712,0-5.4862,1.515-1.515,3.9712-1.5151,5.4862,0"/><path id="g" class="l" d="m15.2852,29.3235c2.1425,0,3.8794,1.7369,3.8794,3.8794s-1.7369,3.8794-3.8794,3.8794-3.8794-1.7368-3.8794-3.8794"/><path id="h" class="l" d="m15.2852,33.2029l-4.3489-3.3309"/><path id="i" class="l" d="m37.8668,33.3731l-5.3036-.1702"/><path id="j" class="l" d="m20.6844,16.0855l-5.5706-.2198"/><path id="k" class="l" d="m36.4426,12.4249l-3.8794,3.4812"/></svg>
